Newaita-dark/apps/scalable/deluge.svg

<?xml version="1.0" encoding="UTF-8"?>
<svg xmlns="http://www.w3.org/2000/svg" xmlns:xlink="http://www.w3.org/1999/xlink" width="512pt" height="512pt" viewBox="0 0 512 512" version="1.1">
<defs>
<radialGradient id="radial0" gradientUnits="userSpaceOnUse" cx="450.908936" cy="189.579361" fx="450.908936" fy="189.579361" r="21.166656" gradientTransform="matrix(0.00000278673,-1.250119,-2.250215,-0.00000162462,712.37043,1017.52527)">
<stop offset="0" style="stop-color:rgb(0%,0%,0%);stop-opacity:0.313725;"/>
<stop offset="0.222222" style="stop-color:rgb(0%,0%,0%);stop-opacity:0.27451;"/>
<stop offset="1" style="stop-color:rgb(0%,0%,0%);stop-opacity:0;"/>
</radialGradient>
<radialGradient id="radial1" gradientUnits="userSpaceOnUse" cx="450.908936" cy="189.579361" fx="450.908936" fy="189.579361" r="21.166656" gradientTransform="matrix(-0.00000278673,1.250119,2.250215,0.00000162462,-204.321898,-120.439713)">
<stop offset="0" style="stop-color:rgb(0%,0%,0%);stop-opacity:0.313725;"/>
<stop offset="0.222222" style="stop-color:rgb(0%,0%,0%);stop-opacity:0.27451;"/>
<stop offset="1" style="stop-color:rgb(0%,0%,0%);stop-opacity:0;"/>
</radialGradient>
<radialGradient id="radial2" gradientUnits="userSpaceOnUse" cx="450.908936" cy="189.579361" fx="450.908936" fy="189.579361" r="21.166656" gradientTransform="matrix(-0.00000278673,-1.250119,2.250215,-0.00000162462,-204.321898,1017.52527)">
<stop offset="0" style="stop-color:rgb(0%,0%,0%);stop-opacity:0.313725;"/>
<stop offset="0.222222" style="stop-color:rgb(0%,0%,0%);stop-opacity:0.27451;"/>
<stop offset="1" style="stop-color:rgb(0%,0%,0%);stop-opacity:0;"/>
</radialGradient>
<radialGradient id="radial3" gradientUnits="userSpaceOnUse" cx="450.908936" cy="189.579361" fx="450.908936" fy="189.579361" r="21.166656" gradientTransform="matrix(0.00000278673,1.250119,-2.250215,0.00000162462,712.3704,-120.43972)">
<stop offset="0" style="stop-color:rgb(0%,0%,0%);stop-opacity:0.313725;"/>
<stop offset="0.222222" style="stop-color:rgb(0%,0%,0%);stop-opacity:0.27451;"/>
<stop offset="1" style="stop-color:rgb(0%,0%,0%);stop-opacity:0;"/>
</radialGradient>
<linearGradient id="linear0" gradientUnits="userSpaceOnUse" x1="255.323059" y1="233.5" x2="255.323044" y2="254.666656" gradientTransform="matrix(0.213761,0,0,1.000095,199.446179,215.020539)">
<stop offset="0" style="stop-color:rgb(0%,0%,0%);stop-opacity:0.27451;"/>
<stop offset="1" style="stop-color:rgb(0%,0%,0%);stop-opacity:0;"/>
</linearGradient>
<linearGradient id="linear1" gradientUnits="userSpaceOnUse" x1="960" y1="1695.118164" x2="960" y2="175.118118" gradientTransform="matrix(0.264609,0,0,0.264609,0,0)">
<stop offset="0" style="stop-color:rgb(11.764706%,53.333333%,89.803922%);stop-opacity:1;"/>
<stop offset="1" style="stop-color:rgb(12.941176%,58.823529%,95.294118%);stop-opacity:1;"/>
</linearGradient>
</defs>
<g id="surface1">
<path style=" stroke:none;fill-rule:nonzero;fill:url(#radial0);" d="M 291.070312 448.542969 L 333.40625 448.542969 L 333.40625 427.375 L 291.070312 427.375 Z M 291.070312 448.542969 "/>
<path style=" stroke:none;fill-rule:nonzero;fill:url(#radial1);" d="M 216.980469 448.542969 L 174.640625 448.542969 L 174.640625 469.710938 L 216.980469 469.710938 Z M 216.980469 448.542969 "/>
<path style=" stroke:none;fill-rule:nonzero;fill:url(#radial2);" d="M 216.980469 448.542969 L 174.640625 448.542969 L 174.640625 427.375 L 216.980469 427.375 Z M 216.980469 448.542969 "/>
<path style=" stroke:none;fill-rule:nonzero;fill:url(#radial3);" d="M 291.070312 448.542969 L 333.40625 448.542969 L 333.40625 469.710938 L 291.070312 469.710938 Z M 291.070312 448.542969 "/>
<path style=" stroke:none;fill-rule:nonzero;fill:url(#linear0);" d="M 216.980469 443.25 L 291.070312 443.25 L 291.070312 469.710938 L 216.980469 469.710938 Z M 216.980469 443.25 "/>
<path style=" stroke:none;fill-rule:nonzero;fill:url(#linear1);" d="M 105.84375 321.53125 C 105.84375 391.894531 171.933594 448.542969 254.023438 448.542969 C 336.117188 448.542969 402.203125 391.894531 402.203125 321.53125 C 402.203125 268.609375 306.945312 131.011719 254.023438 46.335938 C 201.101562 131.011719 105.84375 268.609375 105.84375 321.53125 Z M 105.84375 321.53125 "/>
<path style=" stroke:none;fill-rule:nonzero;fill:rgb(0%,0%,0%);fill-opacity:0.196078;" d="M 105.871094 319.976562 C 105.855469 320.5 105.84375 321.019531 105.84375 321.53125 C 105.84375 391.894531 171.933594 448.542969 254.023438 448.542969 C 336.117188 448.542969 402.203125 391.894531 402.203125 321.53125 C 402.203125 321.019531 402.191406 320.5 402.175781 319.976562 C 400.664062 389.199219 335.160156 444.539062 254.023438 444.539062 C 172.886719 444.539062 107.386719 389.199219 105.871094 319.976562 Z M 105.871094 319.976562 "/>
<path style=" stroke:none;fill-rule:nonzero;fill:rgb(100%,100%,100%);fill-opacity:0.313725;" d="M 254.023438 46.335938 C 201.101562 131.011719 105.84375 268.609375 105.84375 321.53125 C 105.84375 323.152344 105.878906 324.769531 105.949219 326.375 C 109.429688 271.363281 202.101562 137.351562 254.023438 54.277344 C 305.945312 137.351562 398.617188 271.363281 402.101562 326.375 C 402.167969 324.769531 402.203125 323.152344 402.203125 321.53125 C 402.203125 268.609375 306.945312 131.011719 254.023438 46.335938 Z M 254.023438 46.335938 "/>
<path style=" stroke:none;fill-rule:nonzero;fill:rgb(12.941177%,12.941177%,12.941177%);fill-opacity:1;" d="M 254.023438 43.507812 L 252.753906 45.542969 C 226.3125 87.847656 189.257812 143.429688 158.796875 195.078125 C 143.566406 220.90625 129.980469 245.75 120.1875 267.496094 C 110.390625 289.246094 104.34375 307.851562 104.34375 321.53125 C 104.34375 392.835938 171.242188 450.042969 254.023438 450.042969 C 336.804688 450.042969 403.707031 392.835938 403.707031 321.53125 C 403.707031 307.851562 397.65625 289.246094 387.863281 267.496094 C 378.066406 245.75 364.484375 220.90625 349.253906 195.078125 C 318.792969 143.429688 281.734375 87.847656 255.296875 45.542969 Z M 254.023438 49.136719 C 280.417969 91.261719 316.71875 145.816406 346.667969 196.605469 C 361.867188 222.375 375.40625 247.148438 385.125 268.730469 C 394.847656 290.308594 400.703125 308.75 400.703125 321.53125 C 400.703125 390.957031 335.425781 447.042969 254.023438 447.042969 C 172.621094 447.042969 107.34375 390.957031 107.34375 321.53125 C 107.34375 308.75 113.203125 290.308594 122.921875 268.730469 C 132.640625 247.148438 146.179688 222.375 161.378906 196.605469 C 191.332031 145.816406 227.628906 91.261719 254.023438 49.136719 Z M 254.023438 49.136719 "/>
</g>
</svg>

<svg xmlns="http://www.w3.org/2000/svg" width="512pt" height="512pt" viewBox="0 0 512 512"><defs><radialGradient id="a" gradientUnits="userSpaceOnUse" cx="450.909" cy="189.579" fx="450.909" fy="189.579" r="21.167" gradientTransform="matrix(0 -1.25012 -2.25021 0 712.37 1017.525)"><stop offset="0" stop-opacity=".314"/><stop offset=".222" stop-opacity=".275"/><stop offset="1" stop-opacity="0"/></radialGradient><radialGradient id="b" gradientUnits="userSpaceOnUse" cx="450.909" cy="189.579" fx="450.909" fy="189.579" r="21.167" gradientTransform="matrix(0 1.25012 2.25021 0 -204.322 -120.44)"><stop offset="0" stop-opacity=".314"/><stop offset=".222" stop-opacity=".275"/><stop offset="1" stop-opacity="0"/></radialGradient><radialGradient id="c" gradientUnits="userSpaceOnUse" cx="450.909" cy="189.579" fx="450.909" fy="189.579" r="21.167" gradientTransform="matrix(0 -1.25012 2.25021 0 -204.322 1017.525)"><stop offset="0" stop-opacity=".314"/><stop offset=".222" stop-opacity=".275"/><stop offset="1" stop-opacity="0"/></radialGradient><radialGradient id="d" gradientUnits="userSpaceOnUse" cx="450.909" cy="189.579" fx="450.909" fy="189.579" r="21.167" gradientTransform="matrix(0 1.25012 -2.25021 0 712.37 -120.44)"><stop offset="0" stop-opacity=".314"/><stop offset=".222" stop-opacity=".275"/><stop offset="1" stop-opacity="0"/></radialGradient><linearGradient id="e" gradientUnits="userSpaceOnUse" x1="255.323" y1="233.5" x2="255.323" y2="254.667" gradientTransform="matrix(.21376 0 0 1.0001 199.446 215.02)"><stop offset="0" stop-opacity=".275"/><stop offset="1" stop-opacity="0"/></linearGradient><linearGradient id="f" gradientUnits="userSpaceOnUse" x1="960" y1="1695.118" x2="960" y2="175.118" gradientTransform="rotate(.158) scale(.26461)"><stop offset="0" stop-color="#1e88e5"/><stop offset="1" stop-color="#2196f3"/></linearGradient></defs><path d="M291.07 448.543h42.336v-21.168H291.07zm0 0" fill="url(#a)"/><path d="M216.98 448.543h-42.34v21.168h42.34zm0 0" fill="url(#b)"/><path d="M216.98 448.543h-42.34v-21.168h42.34zm0 0" fill="url(#c)"/><path d="M291.07 448.543h42.336v21.168H291.07zm0 0" fill="url(#d)"/><path d="M216.98 443.25h74.09v26.46h-74.09zm0 0" fill="url(#e)"/><path d="M105.844 321.531c0 70.364 66.09 127.012 148.18 127.012 82.093 0 148.18-56.648 148.18-127.012 0-52.922-95.259-190.52-148.18-275.195-52.922 84.676-148.18 222.273-148.18 275.195zm0 0" fill="url(#f)"/><path d="M105.871 319.977a52.279 52.279 0 0 0-.027 1.554c0 70.364 66.09 127.012 148.18 127.012 82.093 0 148.18-56.648 148.18-127.012 0-.511-.013-1.031-.028-1.554-1.512 69.222-67.016 124.562-148.153 124.562-81.136 0-146.636-55.34-148.152-124.562zm0 0" fill-opacity=".196"/><path d="M254.023 46.336c-52.921 84.676-148.18 222.273-148.18 275.195 0 1.621.036 3.239.106 4.844 3.48-55.012 96.153-189.023 148.074-272.098 51.922 83.075 144.594 217.086 148.079 272.098.066-1.605.101-3.223.101-4.844 0-52.922-95.258-190.52-148.18-275.195zm0 0" fill="#fff" fill-opacity=".314"/><path d="M254.023 43.508l-1.27 2.035c-26.44 42.305-63.495 97.887-93.956 149.535-15.23 25.828-28.817 50.672-38.61 72.418-9.796 21.75-15.843 40.356-15.843 54.035 0 71.305 66.898 128.512 149.68 128.512 82.78 0 149.683-57.207 149.683-128.512 0-13.68-6.05-32.285-15.844-54.035-9.797-21.746-23.379-46.59-38.61-72.418-30.46-51.648-67.519-107.23-93.956-149.535zm0 5.629c26.395 42.125 62.696 96.68 92.645 147.468 15.2 25.77 28.738 50.543 38.457 72.125 9.723 21.579 15.578 40.02 15.578 52.801 0 69.426-65.277 125.512-146.68 125.512-81.402 0-146.68-56.086-146.68-125.512 0-12.781 5.86-31.222 15.579-52.8 9.719-21.583 23.258-46.356 38.457-72.126 29.953-50.789 66.25-105.343 92.644-147.468zm0 0" fill="#212121"/></svg>
